X: 4000
T: Air Tune, The
M: 4/4
L: 1/8
C: Liz Carroll
S: Michelle Mulcahy
K: Dmaj
FG|Af{g}fe f2ed|f/2g/2adef2ed|Beed fded|BAAd BAFG|
|Af{g}fe f2ed|f/2g/2ade efed|dBBe dAB/2c/2d|1 EFED D2:|2 EFED Defg||
|a2ga fgef|{f}edcd FADA|Beed fded|BAAd BAFG|
|Aaga fgef|{f}edcd FADA|GB{c}BA B/2c/2dBA|1 Affe defg:|2 Affe d2||
